packages/core/src/svgs/mngo.svg

<svg width="24" height="24" viewBox="0 0 24 24" fill="none" xmlns="http://www.w3.org/2000/svg">
<g clip-path="url(#clip0_31_14053)">
<path d="M0 0H24V24H0V0Z" fill="#141026"/>
<path d="M12.9856 13.9455C12.3085 15.5441 11.0056 16.6027 9.42418 16.7612C9.3899 16.7612 8.95276 16.7998 8.71704 16.7827C9.93895 17.6172 11.3391 18.1543 12.8056 18.3512C13.277 18.3984 13.8128 18.437 14.3485 18.4241C14.5413 17.9398 14.6485 17.3827 14.6185 16.7527C14.5456 15.287 15.4113 14.5327 16.3499 14.147C15.8739 13.3885 15.5088 12.5659 15.2656 11.7041C14.5328 11.897 13.6028 12.497 12.9899 13.9455H12.9856Z" fill="url(#paint0_linear_31_14053)"/>
<path d="M14.5887 16.74C14.6135 17.3169 14.5156 17.8924 14.3015 18.4286C15.6901 18.3943 17.1429 18 17.5158 16.5215C17.5929 16.2043 17.6015 15.8615 17.4729 15.5658C17.3444 15.2786 17.1001 15.0558 16.8815 14.8243C16.6758 14.6058 16.4915 14.3658 16.3244 14.1172C15.3901 14.5029 14.5158 15.2743 14.5887 16.74Z" fill="url(#paint1_linear_31_14053)"/>
<path d="M15.2144 11.5414C15.0001 10.9843 14.8201 10.4185 14.5458 9.89569C14.2146 9.30315 13.7955 8.76419 13.3029 8.29712C12.6648 8.3131 12.0318 8.178 11.4558 7.90283C10.8558 8.73426 10.1787 10.14 10.8001 11.7428C11.7215 14.1128 9.85723 15.7328 8.65723 16.7357L8.71723 16.7785C8.94008 16.8 9.16723 16.7957 9.39008 16.77C10.9758 16.6114 12.3515 15.5271 13.0329 13.9328C13.6501 12.4843 14.5458 11.9357 15.2744 11.7471L15.2144 11.5414Z" fill="url(#paint2_linear_31_14053)"/>
<path d="M7.3842 8.38721C6.46958 9.40962 5.97513 10.7399 5.99991 12.1115C6.01472 12.9986 6.26625 13.8656 6.72848 14.6229C8.65705 12.7243 7.96277 9.89149 7.3842 8.38721Z" fill="url(#paint3_linear_31_14053)"/>
<path d="M10.8343 11.7427C10.2128 10.1356 10.8771 8.74272 11.4685 7.91129C11.0787 7.71449 10.7308 7.44375 10.4443 7.11415C9.85733 7.10212 9.2746 7.21556 8.73506 7.4469C8.19552 7.67824 7.7116 8.02213 7.31568 8.45558C7.8814 9.92986 8.56282 12.6984 6.6814 14.5541C7.19578 15.4178 7.87948 16.1686 8.6914 16.7613C9.88711 15.7584 11.7557 14.1127 10.8343 11.747V11.7427Z" fill="url(#paint4_linear_31_14053)"/>
<path d="M13.1571 6.2016C14.4599 6.70732 15.3728 6.84446 16.0371 6.82303L16.0542 6.81018C13.5899 2.67875 10.3628 5.9316 10.3628 5.9316L10.3671 5.94018C11.3018 5.77127 12.2648 5.86017 13.1528 6.19732L13.1571 6.2016Z" fill="url(#paint5_linear_31_14053)"/>
<path d="M13.1743 6.17166C12.09 5.75166 11.0743 5.76881 10.3672 5.94024C12.2229 9.13309 15.7458 7.00309 16.0329 6.82309C15.3729 6.84452 14.4772 6.67738 13.1743 6.17166Z" fill="#AFD803"/>
</g>
<defs>
<linearGradient id="paint0_linear_31_14053" x1="7.16133" y1="16.8941" x2="16.5899" y2="14.5584" gradientUnits="userSpaceOnUse">
<stop offset="0.21" stop-color="#E54033"/>
<stop offset="0.84" stop-color="#FECA1A"/>
</linearGradient>
<linearGradient id="paint1_linear_31_14053" x1="14.6058" y1="16.2686" x2="17.5201" y2="16.29" gradientUnits="userSpaceOnUse">
<stop offset="0.4" stop-color="#FECA1A"/>
<stop offset="1" stop-color="#AFD803"/>
</linearGradient>
<linearGradient id="paint2_linear_31_14053" x1="8.0058" y1="16.95" x2="13.8472" y2="8.9014" gradientUnits="userSpaceOnUse">
<stop offset="0.16" stop-color="#E54033"/>
<stop offset="0.84" stop-color="#FECA1A"/>
</linearGradient>
<linearGradient id="paint3_linear_31_14053" x1="7.13563" y1="9.05149" x2="6.87848" y2="14.1858" gradientUnits="userSpaceOnUse">
<stop stop-color="#FECA1A"/>
<stop offset="0.76" stop-color="#E54033"/>
</linearGradient>
<linearGradient id="paint4_linear_31_14053" x1="10.0585" y1="7.71415" x2="8.51568" y2="13.6841" gradientUnits="userSpaceOnUse">
<stop offset="0.16" stop-color="#FECA1A"/>
<stop offset="1" stop-color="#E54033"/>
</linearGradient>
<linearGradient id="paint5_linear_31_14053" x1="10.6799" y1="4.86446" x2="16.5642" y2="7.0716" gradientUnits="userSpaceOnUse">
<stop offset="0.15" stop-color="#6CBF00"/>
<stop offset="1" stop-color="#AFD803"/>
</linearGradient>
<clipPath id="clip0_31_14053">
<rect width="24" height="24" fill="white"/>
</clipPath>
</defs>
</svg>

<svg xmlns="http://www.w3.org/2000/svg" width="24" height="24" fill="none" viewBox="0 0 24 24"><g clip-path="url(#a)"><path fill="#141026" d="M0 0h24v24H0z"/><path fill="url(#b)" d="M12.986 13.946c-.678 1.598-1.98 2.657-3.562 2.815-.034 0-.471.039-.707.022a9.5 9.5 0 0 0 4.089 1.568 13 13 0 0 0 1.543.073c.192-.484.3-1.041.27-1.671-.073-1.466.792-2.22 1.73-2.606a9.4 9.4 0 0 1-1.083-2.443c-.733.193-1.663.793-2.276 2.241z"/><path fill="url(#c)" d="M14.589 16.74a4.1 4.1 0 0 1-.287 1.689c1.388-.035 2.84-.429 3.214-1.907.077-.318.086-.66-.043-.956-.129-.287-.373-.51-.591-.742a5.5 5.5 0 0 1-.558-.707c-.934.386-1.808 1.157-1.735 2.623"/><path fill="url(#d)" d="M15.214 11.541c-.214-.557-.394-1.123-.668-1.645a6.7 6.7 0 0 0-1.243-1.599 4.05 4.05 0 0 1-1.847-.394c-.6.831-1.277 2.237-.656 3.84.922 2.37-.943 3.99-2.143 4.993l.06.043q.337.03.673-.009c1.586-.159 2.961-1.243 3.643-2.837.617-1.449 1.513-1.997 2.241-2.186z"/><path fill="url(#e)" d="M7.384 8.387A5.44 5.44 0 0 0 6 12.111a5 5 0 0 0 .728 2.512c1.93-1.899 1.235-4.732.656-6.236"/><path fill="url(#f)" d="M10.834 11.743c-.621-1.607.043-3 .635-3.832a3.4 3.4 0 0 1-1.025-.797 4.12 4.12 0 0 0-3.128 1.342c.565 1.474 1.247 4.242-.635 6.098a7.5 7.5 0 0 0 2.01 2.207c1.196-1.003 3.065-2.648 2.143-5.014z"/><path fill="url(#g)" d="M13.157 6.202c1.303.505 2.216.642 2.88.621l.017-.013c-2.464-4.131-5.691-.878-5.691-.878l.004.008a5.23 5.23 0 0 1 2.786.257z"/><path fill="#AFD803" d="M13.174 6.172c-1.084-.42-2.1-.403-2.807-.232 1.856 3.193 5.379 1.063 5.666.883-.66.022-1.556-.146-2.859-.651"/></g><defs><linearGradient id="b" x1="7.161" x2="16.59" y1="16.894" y2="14.558" gradientUnits="userSpaceOnUse"><stop offset=".21" stop-color="#E54033"/><stop offset=".84" stop-color="#FECA1A"/></linearGradient><linearGradient id="c" x1="14.606" x2="17.52" y1="16.269" y2="16.29" gradientUnits="userSpaceOnUse"><stop offset=".4" stop-color="#FECA1A"/><stop offset="1" stop-color="#AFD803"/></linearGradient><linearGradient id="d" x1="8.006" x2="13.847" y1="16.95" y2="8.901" gradientUnits="userSpaceOnUse"><stop offset=".16" stop-color="#E54033"/><stop offset=".84" stop-color="#FECA1A"/></linearGradient><linearGradient id="e" x1="7.136" x2="6.878" y1="9.051" y2="14.186" gradientUnits="userSpaceOnUse"><stop stop-color="#FECA1A"/><stop offset=".76" stop-color="#E54033"/></linearGradient><linearGradient id="f" x1="10.059" x2="8.516" y1="7.714" y2="13.684" gradientUnits="userSpaceOnUse"><stop offset=".16" stop-color="#FECA1A"/><stop offset="1" stop-color="#E54033"/></linearGradient><linearGradient id="g" x1="10.68" x2="16.564" y1="4.864" y2="7.072" gradientUnits="userSpaceOnUse"><stop offset=".15" stop-color="#6CBF00"/><stop offset="1" stop-color="#AFD803"/></linearGradient><clipPath id="a"><path fill="#fff" d="M0 0h24v24H0z"/></clipPath></defs></svg>
